X: 281
T: Guo danian
%%abc-version 2.0
%%abcx-abcm2ps-target-version 5.9.1 (29 Sep 2008)
%%abc-creator hum2abc beta
%%abcx-conversion-date 2013/10/02 07:52:29
%%abc-edited-by Helmut Schaffrath
%%humdrum-veritas 1571635475
%%humdrum-veritas-data 3378423795
%%continueall 1
%%barnumbers 0
L: 1/8
M: 2/4
K: A
A B c e [I:setbarnb 1]| 
B3e | 
c B A F | 
E4 | 
A B c e | 
c BA2 | 
c E F A | 
E4 | 
B cB2 | 
B e c e | 
B2E2 | 
A FA2 | 
c c G F | 
c2E2 | 
F E c B | 
A4 |]  



